groups/oxygen/fmoc-fluorenylmethoxycarbonyl.svg

<?xml version='1.0' encoding='iso-8859-1'?>
<svg version='1.1' baseProfile='full'
              xmlns='http://www.w3.org/2000/svg'
                      xmlns:rdkit='http://www.rdkit.org/xml'
                      xmlns:xlink='http://www.w3.org/1999/xlink'
                  xml:space='preserve'
width='256px' height='256px' viewBox='0 0 256 256'>
<!-- END OF HEADER -->
<rect style='opacity:1.0;fill:#FFFFFF;stroke:none' width='256.0' height='256.0' x='0.0' y='0.0'> </rect>
<path class='bond-0 atom-0 atom-1' d='M 21.6,106.6 L 51.8,89.1' style='fill:none;fill-rule:evenodd;stroke:#000000;stroke-width:2.0px;stroke-linecap:butt;stroke-linejoin:miter;stroke-opacity:1' />
<path class='bond-1 atom-1 atom-2' d='M 54.4,90.6 L 54.4,65.8' style='fill:none;fill-rule:evenodd;stroke:#000000;stroke-width:2.0px;stroke-linecap:butt;stroke-linejoin:miter;stroke-opacity:1' />
<path class='bond-1 atom-1 atom-2' d='M 49.2,90.6 L 49.1,65.8' style='fill:none;fill-rule:evenodd;stroke:#000000;stroke-width:2.0px;stroke-linecap:butt;stroke-linejoin:miter;stroke-opacity:1' />
<path class='bond-2 atom-1 atom-3' d='M 51.8,89.1 L 74.6,102.3' style='fill:none;fill-rule:evenodd;stroke:#000000;stroke-width:2.0px;stroke-linecap:butt;stroke-linejoin:miter;stroke-opacity:1' />
<path class='bond-3 atom-3 atom-4' d='M 89.5,102.3 L 112.3,89.1' style='fill:none;fill-rule:evenodd;stroke:#000000;stroke-width:2.0px;stroke-linecap:butt;stroke-linejoin:miter;stroke-opacity:1' />
<path class='bond-4 atom-4 atom-5' d='M 112.3,89.1 L 142.6,106.5' style='fill:none;fill-rule:evenodd;stroke:#000000;stroke-width:2.0px;stroke-linecap:butt;stroke-linejoin:miter;stroke-opacity:1' />
<path class='bond-5 atom-5 atom-6' d='M 142.6,106.5 L 174.5,92.2' style='fill:none;fill-rule:evenodd;stroke:#000000;stroke-width:2.0px;stroke-linecap:butt;stroke-linejoin:miter;stroke-opacity:1' />
<path class='bond-6 atom-6 atom-7' d='M 174.5,92.2 L 185.2,59.0' style='fill:none;fill-rule:evenodd;stroke:#000000;stroke-width:2.0px;stroke-linecap:butt;stroke-linejoin:miter;stroke-opacity:1' />
<path class='bond-6 atom-6 atom-7' d='M 180.4,91.0 L 189.3,63.5' style='fill:none;fill-rule:evenodd;stroke:#000000;stroke-width:2.0px;stroke-linecap:butt;stroke-linejoin:miter;stroke-opacity:1' />
<path class='bond-7 atom-7 atom-8' d='M 185.2,59.0 L 219.4,51.7' style='fill:none;fill-rule:evenodd;stroke:#000000;stroke-width:2.0px;stroke-linecap:butt;stroke-linejoin:miter;stroke-opacity:1' />
<path class='bond-8 atom-8 atom-9' d='M 219.4,51.7 L 242.8,77.7' style='fill:none;fill-rule:evenodd;stroke:#000000;stroke-width:2.0px;stroke-linecap:butt;stroke-linejoin:miter;stroke-opacity:1' />
<path class='bond-8 atom-8 atom-9' d='M 217.5,57.4 L 236.9,78.9' style='fill:none;fill-rule:evenodd;stroke:#000000;stroke-width:2.0px;stroke-linecap:butt;stroke-linejoin:miter;stroke-opacity:1' />
<path class='bond-9 atom-9 atom-10' d='M 242.8,77.7 L 232.1,110.9' style='fill:none;fill-rule:evenodd;stroke:#000000;stroke-width:2.0px;stroke-linecap:butt;stroke-linejoin:miter;stroke-opacity:1' />
<path class='bond-10 atom-10 atom-11' d='M 232.1,110.9 L 197.9,118.2' style='fill:none;fill-rule:evenodd;stroke:#000000;stroke-width:2.0px;stroke-linecap:butt;stroke-linejoin:miter;stroke-opacity:1' />
<path class='bond-10 atom-10 atom-11' d='M 228.0,106.4 L 199.8,112.4' style='fill:none;fill-rule:evenodd;stroke:#000000;stroke-width:2.0px;stroke-linecap:butt;stroke-linejoin:miter;stroke-opacity:1' />
<path class='bond-11 atom-11 atom-12' d='M 197.9,118.2 L 180.5,148.5' style='fill:none;fill-rule:evenodd;stroke:#000000;stroke-width:2.0px;stroke-linecap:butt;stroke-linejoin:miter;stroke-opacity:1' />
<path class='bond-12 atom-12 atom-13' d='M 180.5,148.5 L 191.3,181.7' style='fill:none;fill-rule:evenodd;stroke:#000000;stroke-width:2.0px;stroke-linecap:butt;stroke-linejoin:miter;stroke-opacity:1' />
<path class='bond-12 atom-12 atom-13' d='M 176.4,153.0 L 185.4,180.4' style='fill:none;fill-rule:evenodd;stroke:#000000;stroke-width:2.0px;stroke-linecap:butt;stroke-linejoin:miter;stroke-opacity:1' />
<path class='bond-13 atom-13 atom-14' d='M 191.3,181.7 L 168.0,207.7' style='fill:none;fill-rule:evenodd;stroke:#000000;stroke-width:2.0px;stroke-linecap:butt;stroke-linejoin:miter;stroke-opacity:1' />
<path class='bond-14 atom-14 atom-15' d='M 168.0,207.7 L 133.8,200.4' style='fill:none;fill-rule:evenodd;stroke:#000000;stroke-width:2.0px;stroke-linecap:butt;stroke-linejoin:miter;stroke-opacity:1' />
<path class='bond-14 atom-14 atom-15' d='M 166.1,201.9 L 137.8,195.9' style='fill:none;fill-rule:evenodd;stroke:#000000;stroke-width:2.0px;stroke-linecap:butt;stroke-linejoin:miter;stroke-opacity:1' />
<path class='bond-15 atom-15 atom-16' d='M 133.8,200.4 L 122.9,167.2' style='fill:none;fill-rule:evenodd;stroke:#000000;stroke-width:2.0px;stroke-linecap:butt;stroke-linejoin:miter;stroke-opacity:1' />
<path class='bond-16 atom-16 atom-17' d='M 122.9,167.2 L 146.3,141.3' style='fill:none;fill-rule:evenodd;stroke:#000000;stroke-width:2.0px;stroke-linecap:butt;stroke-linejoin:miter;stroke-opacity:1' />
<path class='bond-16 atom-16 atom-17' d='M 128.8,168.5 L 148.2,147.0' style='fill:none;fill-rule:evenodd;stroke:#000000;stroke-width:2.0px;stroke-linecap:butt;stroke-linejoin:miter;stroke-opacity:1' />
<path class='bond-17 atom-17 atom-5' d='M 146.3,141.3 L 142.6,106.5' style='fill:none;fill-rule:evenodd;stroke:#000000;stroke-width:2.0px;stroke-linecap:butt;stroke-linejoin:miter;stroke-opacity:1' />
<path class='bond-18 atom-11 atom-6' d='M 197.9,118.2 L 174.5,92.2' style='fill:none;fill-rule:evenodd;stroke:#000000;stroke-width:2.0px;stroke-linecap:butt;stroke-linejoin:miter;stroke-opacity:1' />
<path class='bond-19 atom-17 atom-12' d='M 146.3,141.3 L 180.5,148.5' style='fill:none;fill-rule:evenodd;stroke:#000000;stroke-width:2.0px;stroke-linecap:butt;stroke-linejoin:miter;stroke-opacity:1' />
<path d='M 50.3,90.0 L 51.8,89.1 L 52.9,89.8' style='fill:none;stroke:#000000;stroke-width:2.0px;stroke-linecap:butt;stroke-linejoin:miter;stroke-miterlimit:10;stroke-opacity:1;' />
<path d='M 111.2,89.7 L 112.3,89.1 L 113.8,89.9' style='fill:none;stroke:#000000;stroke-width:2.0px;stroke-linecap:butt;stroke-linejoin:miter;stroke-miterlimit:10;stroke-opacity:1;' />
<path d='M 184.7,60.7 L 185.2,59.0 L 186.9,58.7' style='fill:none;stroke:#000000;stroke-width:2.0px;stroke-linecap:butt;stroke-linejoin:miter;stroke-miterlimit:10;stroke-opacity:1;' />
<path d='M 217.7,52.1 L 219.4,51.7 L 220.6,53.0' style='fill:none;stroke:#000000;stroke-width:2.0px;stroke-linecap:butt;stroke-linejoin:miter;stroke-miterlimit:10;stroke-opacity:1;' />
<path d='M 241.6,76.4 L 242.8,77.7 L 242.3,79.3' style='fill:none;stroke:#000000;stroke-width:2.0px;stroke-linecap:butt;stroke-linejoin:miter;stroke-miterlimit:10;stroke-opacity:1;' />
<path d='M 232.6,109.2 L 232.1,110.9 L 230.4,111.2' style='fill:none;stroke:#000000;stroke-width:2.0px;stroke-linecap:butt;stroke-linejoin:miter;stroke-miterlimit:10;stroke-opacity:1;' />
<path d='M 190.8,180.0 L 191.3,181.7 L 190.1,183.0' style='fill:none;stroke:#000000;stroke-width:2.0px;stroke-linecap:butt;stroke-linejoin:miter;stroke-miterlimit:10;stroke-opacity:1;' />
<path d='M 169.1,206.4 L 168.0,207.7 L 166.3,207.3' style='fill:none;stroke:#000000;stroke-width:2.0px;stroke-linecap:butt;stroke-linejoin:miter;stroke-miterlimit:10;stroke-opacity:1;' />
<path d='M 135.5,200.8 L 133.8,200.4 L 133.2,198.8' style='fill:none;stroke:#000000;stroke-width:2.0px;stroke-linecap:butt;stroke-linejoin:miter;stroke-miterlimit:10;stroke-opacity:1;' />
<path d='M 123.5,168.9 L 122.9,167.2 L 124.1,165.9' style='fill:none;stroke:#000000;stroke-width:2.0px;stroke-linecap:butt;stroke-linejoin:miter;stroke-miterlimit:10;stroke-opacity:1;' />
<path class='atom-1' d='M30.3062,121.752 C31.4401,121.096 30.5648,119.584 29.4309,120.24 C28.297,120.897 27.4217,119.385 28.5556,118.728 C29.6894,118.072 28.8141,116.56 27.6803,117.216 C26.5464,117.873 25.6711,116.361 26.805,115.704 C27.9388,115.048 27.0635,113.536 25.9296,114.193 C24.7958,114.849 23.9205,113.337 25.0543,112.681 C26.1882,112.024 25.3129,110.512 24.179,111.169 C23.0452,111.825 22.1698,110.313 23.3037,109.657 C24.4376,109 23.5623,107.488 22.4284,108.145 C21.2945,108.801 20.4192,107.289 21.5531,106.633 C22.687,105.976 21.8117,104.464 20.6778,105.121 C19.5439,105.777 18.6686,104.265 19.8025,103.609 C20.9364,102.952 20.061,101.44 18.9272,102.097 C17.7933,102.753 16.918,101.241 18.0519,100.585 C19.1857,99.9284 18.3104,98.4165 17.1765,99.0729 C16.0427,99.7293 15.1674,98.2174 16.3012,97.5609 C17.4351,96.9045 16.5598,95.3925 15.4259,96.049 C14.2921,96.7054 13.4167,95.1934 14.5506,94.537 C15.6845,93.8806 14.8092,92.3686 13.6753,93.025 C12.5414,93.6815 11.6661,92.1695 12.8,91.5131' style='fill:none;stroke:#7F7F7F;stroke-width:2.0px;stroke-linecap:butt;stroke-linejoin:miter;stroke-opacity:1' />
<text x='45.5' y='64.7' class='atom-2' style='font-size:20px;font-style:normal;font-weight:normal;fill-opacity:1;stroke:none;font-family:sans-serif;text-anchor:start;fill:#000000' >O</text>
<text x='75.8' y='117.0' class='atom-3' style='font-size:20px;font-style:normal;font-weight:normal;fill-opacity:1;stroke:none;font-family:sans-serif;text-anchor:start;fill:#000000' >O</text>
</svg>

<svg height="256" viewBox="0 0 256 256" width="256" xmlns="http://www.w3.org/2000/svg"><path d="m0 0h256v256h-256z" fill="#fff"/><g fill="none" stroke-width="2"><path d="m21.6 106.6 30.2-17.5" stroke="#000"/><path d="m54.4 90.6v-24.8" stroke="#000"/><path d="m49.2 90.6-.1-24.8" stroke="#000"/><path d="m51.8 89.1 22.8 13.2" stroke="#000"/><path d="m89.5 102.3 22.8-13.2" stroke="#000"/><path d="m112.3 89.1 30.3 17.4" stroke="#000"/><path d="m142.6 106.5 31.9-14.3" stroke="#000"/><path d="m174.5 92.2 10.7-33.2" stroke="#000"/><path d="m180.4 91 8.9-27.5" stroke="#000"/><path d="m185.2 59 34.2-7.3" stroke="#000"/><path d="m219.4 51.7 23.4 26" stroke="#000"/><path d="m217.5 57.4 19.4 21.5" stroke="#000"/><path d="m242.8 77.7-10.7 33.2" stroke="#000"/><path d="m232.1 110.9-34.2 7.3" stroke="#000"/><path d="m228 106.4-28.2 6" stroke="#000"/><path d="m197.9 118.2-17.4 30.3" stroke="#000"/><path d="m180.5 148.5 10.8 33.2" stroke="#000"/><path d="m176.4 153 9 27.4" stroke="#000"/><path d="m191.3 181.7-23.3 26" stroke="#000"/><path d="m168 207.7-34.2-7.3" stroke="#000"/><path d="m166.1 201.9-28.3-6" stroke="#000"/><path d="m133.8 200.4-10.9-33.2" stroke="#000"/><path d="m122.9 167.2 23.4-25.9" stroke="#000"/><path d="m128.8 168.5 19.4-21.5" stroke="#000"/><path d="m146.3 141.3-3.7-34.8" stroke="#000"/><path d="m197.9 118.2-23.4-26" stroke="#000"/><path d="m146.3 141.3 34.2 7.2" stroke="#000"/><path d="m50.3 90 1.5-.9 1.1.7" stroke="#000" stroke-miterlimit="10"/><path d="m111.2 89.7 1.1-.6 1.5.8" stroke="#000" stroke-miterlimit="10"/><path d="m184.7 60.7.5-1.7 1.7-.3" stroke="#000" stroke-miterlimit="10"/><path d="m217.7 52.1 1.7-.4 1.2 1.3" stroke="#000" stroke-miterlimit="10"/><path d="m241.6 76.4 1.2 1.3-.5 1.6" stroke="#000" stroke-miterlimit="10"/><path d="m232.6 109.2-.5 1.7-1.7.3" stroke="#000" stroke-miterlimit="10"/><path d="m190.8 180 .5 1.7-1.2 1.3" stroke="#000" stroke-miterlimit="10"/><path d="m169.1 206.4-1.1 1.3-1.7-.4" stroke="#000" stroke-miterlimit="10"/><path d="m135.5 200.8-1.7-.4-.6-1.6" stroke="#000" stroke-miterlimit="10"/><path d="m123.5 168.9-.6-1.7 1.2-1.3" stroke="#000" stroke-miterlimit="10"/><path d="m30.306 121.752c1.134-.656.259-2.168-.875-1.512-1.134.657-2.009-.855-.875-1.512 1.133-.656.258-2.168-.876-1.512-1.134.657-2.009-.855-.875-1.512 1.134-.656.259-2.168-.875-1.511-1.134.656-2.009-.856-.876-1.512 1.134-.657.259-2.169-.875-1.512-1.134.656-2.009-.856-.875-1.512 1.134-.657.258-2.169-.876-1.512-1.133.656-2.009-.856-.875-1.512 1.134-.657.259-2.169-.875-1.512-1.134.656-2.009-.856-.875-1.512 1.133-.657.258-2.169-.876-1.512-1.134.656-2.009-.856-.875-1.512 1.134-.657.258-2.168-.875-1.512-1.134.656-2.01-.856-.876-1.512s.259-2.168-.875-1.512-2.009-.856-.875-1.512.258-2.168-.876-1.512c-1.134.657-2.009-.855-.875-1.512" stroke="#7f7f7f"/></g><text font-family="sans-serif" font-size="20" x="45.5" y="64.7">O</text><text font-family="sans-serif" font-size="20" x="75.8" y="117">O</text></svg>
